X:1
T:Maple Leaf Rag
T:Scott Joplin
%%score { 1 | ( 2 3 ) }
L:1/8
M:2/4
K:Ab
V:1 treble nm="Harpsichord" snm="Hch."
V:2 bass 
V:3 bass 
V:1
 z2[Q:1/4=105]"^tempo di marcio" |: z/!f! A/[Ee]/A/ c/[Ee]G/ | e/G/c/[Ee]/- [Ee]2 | %3
 z/ A/[Ee]/A/ c/[Ee]G/ | e/G/c/[Ee]/- [Ee] z/ [Ee]/ | z/ A/_c/[_F_f]/ z/ [Ee]/ z/ [Ee]/ | %6
 z/ A/_c/[_F_f]/ z/ [Ee]/ z |!f! z4 | z/ A/_c/a/ z/ a/_c'/a'/ |!f! [aa'][aa'] [aa'][aa']/[a-a']/ | %10
 a/e'/f'/c'/ e'/[c'f'][_fa]/- | [fa]/b/[_f_c']/a/ b/[e=c']a/ | [fc']/a/[eb] [ea] z/ [Aa]/- | %13
 [Aa][Aa] [Aa][Aa]/[A-a]/ | A/e/f/c/ e/[cf][_FA]/- | [FA]/B/[_F_c]/A/ B/[E=c]A/ |1 %16
 [Fc]/A/[EB] [EA] z :|2 [Fc]/A/[EB] [EA] z |: z/ g/[ee']/g/ b/[=d=d']g/ | %19
 [dd']/g/b/[cc']/- [cc']/e/[Bb]/e/ | z/ c/[Aa]/c/ e/[Ff]c/ | [Aa]/c/e/[Ff]/- [Ff]/c/[Ff] | %22
 z/ e/[Gg]/c/ d/fe/ | [Gg]/B/d/[Ff]/- [Ff]/d/[Ff] | z/ c/[Aa]/c/ e/[Ff]c/ | %25
 [Aa]/c/e/[Ff]/- [Ff]/c/[Ff] | z/ g/[ee']/g/ b/[=d=d']g/ | [dd']/g/b/[cc']/- [cc']/e/[Bb]/e/ | %28
 z/ c/[Aa]/c/ e/[Ff]c/ | [Aa][Aa] [Gg][_G_g] | z/ F/=A/c/ f/c/=A/F/ | z/ F/B/d/ [Ff][FBd] | %32
 [=DFAc] z/ [DFAc]/ z/ [_DB]E/ |1 [CA][Ee] [Ee][Ee] :|2 z/ A/c/e/ [Aa] z || z/ A/[Ee]/A/ c/[Ee]G/ | %36
 e/G/c/[Ee]/- [Ee]2 | z/ A/[Ee]/A/ c/[Ee]G/ | e/G/c/[Ee]/- [Ee] z/ [Ee]/ | %39
 z/ A/_c/[_F_f]/ z/ [Ee]/ z/ [Ee]/ | z/ A/_c/[_F_f]/ z/ [Ee]/ z | z4 | z/ A/_c/a/ z/ a/_c'/a'/ | %43
 [aa'][aa'] [aa'][aa']/[a-a']/ | a/e'/f'/c'/ e'/[c'f'][_fa]/- | [fa]/b/[_f_c']/a/ b/[e=c']a/ | %46
 [fc']/a/[eb] [ea] z/ [Aa]/- | [Aa][Aa] [Aa][Aa]/[A-a]/ | A/e/f/c/ e/[cf][_FA]/- | %49
 [FA]/B/[_F_c]/A/ B/[E=c]A/ | [Fc]/A/[EB] [EA][Aa] |:[K:Db]"^TRIO" [Acea]>[Bcea]- [Bcea]/[ce]/B | %52
 [Acea]>[Bcea]- [Bcea]/[ce]/B/[ce]/ | A/d/B/d/ f/A/d/f/ | B/d/f/A/- A/f/B/f/ | %55
 [Acea]>[Bcea]- [Bcea]/[ce]/B | [Acea]>[Bcea]- [Bcea]/[ce]/B/[ce]/ | A/d/B/d/ f/A/d/f/ | %58
 B/d/f/A/- A/f/=A/[ef]/ | [B=dfb]>[cdfb]- [cdfb]/[df]/c | [B=dfb]>[cdfb]- [cdfb]/[df]/c/[=df]/ | %61
 z/ e/[Bb]/e/ g/[cc']e/ | [Bb]/e/g/[cc']/- [cc']/e/[Bb] | [d_fd'][dfd'] [cfc'][Bfb] | %64
 [Af]/d/e/[Bg]/- [Bg]/B/[Af] | [=Gf]/d/e/[_Gf]/- [Gf]/d/[Ge]/[Fd]/- |1 %66
 [Fd]/[Aa]f/ [Aa]/f/[Aa]/f/ :|2 [Fd]/d/f/a/ [dd'] z |:[K:Ab] [Aa][Af] [Aa][Af] | %69
 [fa][fb]/[fc']/- [fc']/b/a/f/ | e/f[Ac]/- [Ac]2 | z/ e/[Af]/c/ e/[Af]c/ | [Ge]f/[GB]/- [GB]2 | %73
 z/ d/[Gf]/B/ d/[Gf][Ac]/- | [Ac]/e/[Af]/c/ e/[Af][Ac]/- | [Ac]/e/[Af]/c/ e/[Af]e/ | %76
 [Aa][Af] [Aa][Af] | [fa][fb]/[fc']/- [fc']/b/a/f/ | af e/a[Ac]/- | [Ac]/e/[Af]/c/ e/[Af][FA]/- | %80
 [FA]/B/[FA] [_FA][FB]/[EA]/- | [EA]/B/[Ec]/A/ B/[Ec][=DA]/- | [DA]/B/[Ec]/A/ z/ [_DB]E/ |1 %83
 [CA][Ee] [Ee][Ee] :|2[Q:1/4=80] [CA][Gde] [Acea] z |] %85
V:2
!f! z !>![E,,E,] |:!mf! [A,,A,][E,A,C] [E,A,C][=A,,=A,] | [B,,B,][E,G,D] [E,G,D][E,,E,] | %3
 [A,,A,][E,A,C] [E,A,C][=A,,=A,] | [B,,B,][E,G,D] [E,G,D][E,,E,] | [_F,,_F,]2 [E,,E,][E,,E,] | %6
 [_F,,_F,]2 .[E,,E,] z | z/ A,,/_C,/A,/ z/ A,/_C/A/ | z4 | %9
[K:treble]!mf! [=DFA=B][DFA=B] [DFA=B][DFA=B] | [EAc][EAc] [EAc][EAc] | %11
 [_FA_c][_FA_c] [EA=c][EA=c] | [EAc][EGd] [Ac] z | %13
[K:bass] [=D,F,A,=B,][D,F,A,B,] [D,F,A,B,][D,F,A,B,] | [E,A,C][E,A,C] [E,A,C][E,A,C] | %15
 [_F,A,_C][F,A,C] [E,A,=C][E,A,C] |1 [E,A,C][E,A,D] [A,C]!>![E,,E,] :|2 %17
 [E,A,C][E,G,D] [A,C][_A,,_A,] |: !>![B,,B,][E,G,D] [E,,E,][E,G,D] | %19
 [B,,B,][E,G,D] [E,,E,][G,,G,] | [A,,A,][E,A,C] [E,,E,][E,A,C] | [A,,A,][E,A,C] [A,,A,][=A,,=A,] | %22
 !>![B,,B,][E,G,D] [E,,E,][E,G,D] | [B,,B,][E,G,D] [B,,B,][=B,,=B,] | [C,C][E,A,C] [E,,E,][E,A,C] | %25
 [A,,A,][E,A,C] [A,,A,][=A,,=A,] | [B,,B,][E,G,D] [E,,E,][E,G,D] | [B,,B,][E,G,D] [E,,E,][G,,G,] | %28
 [A,,A,][E,A,C] [E,,E,][E,A,C] | [A,,A,][A,,A,] [G,,G,][_G,,_G,] | %30
 [F,,F,][F,,F,] [=A,,=A,][=A,,=A,] | [B,,B,][F,B,D] [F,B,D][F,B,D] | %32
 [B,,F,B,][B,,F,B,] [E,,E,][G,,G,] |1 [A,,A,][E,A,C] [E,A,C][=A,,=A,] :|2 %34
 [A,,A,][A,CE] [A,CE][E,,E,] || [A,,A,][E,A,C] [E,A,C][=A,,=A,] | [B,,B,][E,G,D] [E,G,D][E,,E,] | %37
 [A,,A,][E,A,C] [E,A,C][=A,,=A,] | [B,,B,][E,G,D] [E,G,D][E,,E,] | [_F,,_F,]2 [E,,E,][E,,E,] | %40
 [_F,,_F,]2 .[E,,E,] z | z/ A,,/_C,/A,/ z/ A,/_C/A/ | z4 | %43
[K:treble] [=DFA=B][DFA=B] [DFA=B][DFA=B] | [EAc][EAc] [EAc][EAc] | [_FA_c][_FA_c] [EA=c][EA=c] | %46
 [EAc][EGd] [Ac] z |[K:bass] [=D,F,A,=B,][D,F,A,B,] [D,F,A,B,][D,F,A,B,] | %48
 [E,A,C][E,A,C] [E,A,C][E,A,C] | [_F,A,_C][F,A,C] [E,A,=C][E,A,C] | [E,A,C][E,A,D] [A,C] z |: %51
[K:Db] [E,,E,][A,CG] [G,,G,][A,CG] | [F,,F,][A,CG] [E,,E,][C,,C,] | [D,,D,][A,DF] [A,,A,][A,DF] | %54
 [F,,F,][A,DF] [D,,D,][=D,,=D,] | [E,,E,][A,CG] [G,,G,][A,CG] | [F,,F,][A,CG] [E,,E,][C,,C,] | %57
 [D,,D,][A,DF] [A,,A,][A,DF] | [F,,F,][A,DF] [D,,D,][C,,C,] | [B,,,B,,][B,=DA] [=D,,=D,][B,DA] | %60
 [F,,F,][B,=DA] [B,,B,][B,DA] | [E,,E,][B,EG] [G,,G,][B,EG] | [E,,E,][B,EG] [G,,G,][B,EG] | %63
 _G,/B,D/ _F/D/B,/G,/ | [A,,A,][A,D=F] B,,[A,B,=D] | [E,B,_D][E,B,D] [A,C][A,C] |1 %66
 [D,D][A,DF] [A,DF][=D,,=D,] :|2 [D,D][A,,A,] [D,,D,][C,C] |:[K:Ab] [D,D][A,DF] [A,DF][C,C] | %69
 [D,D][A,DF] [B,,B,][=B,,=B,] | [C,C][A,CE] [A,CE][E,,E,] | [A,,A,][E,A,C] [E,,E,][=A,,=A,] | %72
 [B,,B,][E,G,D] [E,,E,][=A,,=A,] | [B,,B,][E,G,D] [E,,E,][G,,G,] | [A,,A,][E,A,C] [E,,E,][E,A,C] | %75
 [A,,A,][E,A,C] [B,,B,][C,C] | [D,D][A,DF] [A,DF][C,C] | [D,D][A,DF] [B,,B,][=B,,=B,] | %78
 [C,C][A,CE] [A,CE][E,,E,] | [A,,A,][E,A,C] [E,,E,][E,A,C] | [D,,D,][D,,D,] [B,,,B,,][=D,,=D,] | %81
 [E,,E,][E,A,C] [E,,E,][=E,,=E,] | [F,,F,][F,,F,] [G,,G,][G,,G,] |1 [A,,A,][E,A,C] [B,,B,][C,C] :|2 %84
 [A,,A,][E,,E,] [A,,,A,,] z |] %85
V:3
 x2 |: x4 | x4 | x4 | x4 | x4 | x4 | A,,, z A,, z | A, z A z |[K:treble] x4 | x4 | x4 | x4 | %13
[K:bass] x4 | x4 | x4 |1 x4 :|2 x4 |: x4 | x4 | x4 | x4 | x4 | x4 | x4 | x4 | x4 | x4 | x4 | x4 | %30
 x4 | x4 | x4 |1 x4 :|2 x4 || x4 | x4 | x4 | x4 | x4 | x4 | A,,, z A,, z | A, z A z | %43
[K:treble] x4 | x4 | x4 | x4 |[K:bass] x4 | x4 | x4 | x4 |:[K:Db] x4 | x4 | x4 | x4 | x4 | x4 | %57
 x4 | x4 | x4 | x4 | x4 | x4 | x4 | x4 | x4 |1 x4 :|2 x4 |:[K:Ab] x4 | x4 | x4 | x4 | x4 | x4 | %74
 x4 | x4 | x4 | x4 | x4 | x4 | x4 | x4 | x4 |1 x4 :|2 x4 |] %85

